X:293
T:Reel 293
M:4/4
K:Dmaj
L:1/8
AG|FDDF ADFD|EA,A,B, CDEG|FDFD FAdA|BGEF D2AG|FDFD ADFD|EA,A,B, CDEG|FDFA dAcd|AGFE D2|FA|d2fd ddfd|cded cABc|d2fd dfed|cABc d2A2|d2fd edfd|cded cABc|dABA cBcA|Bdce dBAG|
